img/svg/user-ico.svg

<svg width="16" height="17" viewBox="0 0 16 17" fill="none" xmlns="http://www.w3.org/2000/svg">
<path d="M15.9594 14.2101C15.8891 13.8722 15.5582 13.6552 15.2201 13.7256C14.8822 13.7959 14.6653 14.1269 14.7357 14.4648C14.7762 14.6595 14.7279 14.859 14.6033 15.0123C14.5311 15.1011 14.3701 15.25 14.1033 15.25H1.89664C1.62983 15.25 1.46886 15.1011 1.39668 15.0123C1.27202 14.859 1.22377 14.6595 1.2643 14.4648C1.91293 11.3494 4.66089 9.07356 7.8343 8.99681C7.88927 8.99894 7.94449 9 7.99999 9C8.05568 9 8.11111 8.99891 8.1663 8.99678C10.4017 9.05041 12.4678 10.1826 13.719 12.0487C13.9112 12.3354 14.2995 12.4119 14.5862 12.2197C14.8729 12.0275 14.9495 11.6393 14.7572 11.3526C13.7317 9.82306 12.2425 8.71088 10.5446 8.15203C11.5793 7.37613 12.25 6.13991 12.25 4.75C12.25 2.40656 10.3435 0.5 7.99999 0.5C5.65652 0.5 3.74999 2.40656 3.74999 4.75C3.74999 6.14075 4.42149 7.37762 5.45727 8.15347C4.50827 8.46591 3.6178 8.95206 2.83843 9.59313C1.4093 10.7687 0.415644 12.4083 0.0405505 14.2101C-0.077012 14.7747 0.0638317 15.3545 0.426894 15.801C0.788175 16.2452 1.32389 16.5 1.89664 16.5H14.1033C14.6761 16.5 15.2118 16.2452 15.573 15.801C15.9362 15.3545 16.077 14.7747 15.9594 14.2101ZM4.99999 4.75C4.99999 3.09578 6.34577 1.75 7.99999 1.75C9.65421 1.75 11 3.09578 11 4.75C11 6.35328 9.73577 7.66684 8.15183 7.74619C8.1013 7.74525 8.05068 7.74478 7.99999 7.74478C7.94955 7.74478 7.89911 7.74528 7.84874 7.74622C6.26452 7.66719 4.99999 6.3535 4.99999 4.75Z" fill="#4C51CC"/>
</svg>

<svg width="16" height="17" fill="none" xmlns="http://www.w3.org/2000/svg"><path d="M15.96 14.21a.625.625 0 10-1.224.255.653.653 0 01-.133.547.635.635 0 01-.5.238H1.897a.635.635 0 01-.5-.238.653.653 0 01-.133-.547c.649-3.116 3.397-5.391 6.57-5.468a4.279 4.279 0 00.332 0 6.875 6.875 0 015.553 3.052.625.625 0 001.038-.696 8.13 8.13 0 00-4.212-3.201A4.246 4.246 0 0012.25 4.75 4.255 4.255 0 008 .5a4.255 4.255 0 00-4.25 4.25c0 1.39.671 2.628 1.707 3.403a8.122 8.122 0 00-2.619 1.44A8.154 8.154 0 00.041 14.21a1.898 1.898 0 001.856 2.29h12.206a1.897 1.897 0 001.856-2.29zM5 4.75c0-1.654 1.346-3 3-3s3 1.346 3 3a3.004 3.004 0 01-2.848 2.996 8.164 8.164 0 00-.303 0A3.004 3.004 0 015 4.75z" fill="#4C51CC"/></svg>
